X:2339
T:Grand lézard blanc - Rond de Muzillac
O:england
C:La Godinette
M:4/4
L:1/8
K:C
A2Bc B2A2|d2c2 B4|A2Bc B2c2|d2c2 B4:|\
|:A2GF E4|A2GF E4|A2Bc B2c2|d2e2 c2B2|d2cB A4:|


